X:2872
T:Iron League Hornpipe
O:england
R:Hornpipe
M:4/4
L:1/8
K:D
AG |\
F2A2 D2AG | F2EF D2A2 | B2c2d2ed | c2Bc A2AG |\
F2A2 D2AG | F2EF D2A2 |
Bcdg fedc | d2d2 d2 ::\
e2|\
fgfg egeg | fgeg fgeg | dede cece | dece dece |
BdBd AdAd | BdAd BdAd | Bcdg fedc | d2d2 d2 :|


